svg/u1faa6.svg

<svg viewBox="0 0 128 128" xmlns="http://www.w3.org/2000/svg">
  <g>
    <g>
      <linearGradient id="SVGID_1_" gradientUnits="userSpaceOnUse" x1="55.9347" x2="55.9347" y1="29.979" y2="127.5925">
        <stop offset="0.1042" stop-color="#9E9E9E"/>
        <stop offset="0.4542" stop-color="#849298"/>
        <stop offset="0.6732" stop-color="#7A8D96"/>
        <stop offset="0.9483" stop-color="#505E64"/>
      </linearGradient>
      <path d="M35.35,21.07c3.03-7.58,8.55-13.39,15.26-15.83C52.85,4.44,73.54,4,73.54,4 s2.4,6.96,6.44,17.07c1.3,3.26,3.32,5.57,7.61,6.18c1.41,0.2,2.48,1.46,2.48,3.01v83.81H21.8V30.37c0-1.62,1.17-2.93,2.65-3.02 C31.83,26.9,33.97,24.53,35.35,21.07z" fill="url(#SVGID_1_)"/>
      <linearGradient id="SVGID_2_" gradientUnits="userSpaceOnUse" x1="42.0312" x2="42.0312" y1="8.839" y2="29.155">
        <stop offset="0" stop-color="#757575" stop-opacity="0"/>
        <stop offset="0.8282" stop-color="#757575"/>
        <stop offset="0.9543" stop-color="#757575" stop-opacity="0"/>
      </linearGradient>
      <path d="M44.56,8.59c-3.95,3.01-7.15,7.34-9.21,12.48c-1.38,3.46-3.52,5.83-10.91,6.27 c-0.68,0.04-1.28,0.35-1.74,0.81h38.67V8.59H44.56z" fill="url(#SVGID_2_)"/>
      <linearGradient id="SVGID_3_" gradientUnits="userSpaceOnUse" x1="83.5678" x2="52.4534" y1="19.5368" y2="158.4737">
        <stop offset="0.1528" stop-color="#BDBDBD"/>
        <stop offset="1" stop-color="#6E818A"/>
      </linearGradient>
      <path d="M51.22,21.07C55.26,10.96,63.74,4,73.54,4c9.81,0,18.28,6.96,22.32,17.07 c1.3,3.26,3.32,5.57,7.61,6.18c1.41,0.2,2.48,1.46,2.48,3.01v83.81H37.67V30.37c0-1.62,1.17-2.93,2.65-3.02 C47.7,26.9,49.84,24.53,51.22,21.07z" fill="url(#SVGID_3_)"/>
      <path d="M37.67,33.98c0.47,6.37,0.72,12.74,0.88,19.11c0.18,6.37,0.23,12.74,0.26,19.11 c-0.02,6.37-0.06,12.74-0.24,19.11c-0.16,6.37-0.41,12.74-0.87,19.11c-0.47-6.37-0.72-12.74-0.89-19.11 c-0.18-6.37-0.23-12.74-0.25-19.11c0.02-6.37,0.07-12.74,0.24-19.11C36.96,46.71,37.21,40.34,37.67,33.98z" fill="#BDBDBD"/>
      <path d="M73.54,4c-3.41,0.87-6.5,2.34-9.28,4.26c-2.78,1.9-5.29,4.22-7.4,6.8 c-0.53,0.65-0.97,1.31-1.43,2.04l-1.38,2.19c-0.91,1.48-1.83,2.97-2.87,4.42c-0.28,0.37-0.5,0.71-0.85,1.1 c-0.34,0.37-0.71,0.69-1.11,0.96c-0.79,0.55-1.64,0.94-2.52,1.2c-1.76,0.52-3.59,0.58-5.32,0.3c1.75-0.17,3.45-0.54,4.95-1.27 c0.74-0.37,1.45-0.79,2.03-1.33c0.6-0.53,0.97-1.12,1.42-1.88c0.86-1.47,1.67-3.01,2.52-4.53c0.85-1.52,1.68-3.09,2.82-4.56 c2.22-2.89,5.02-5.24,8.15-7.03C66.42,4.92,70,3.82,73.54,4z" fill="#E0E0E0"/>
    </g>
    <g opacity="0.55">
      <path d="M92.58,41.37c-1.1,0.05-2.33-0.16-3.24-0.2c-0.91-0.04-1.81,0.16-2.72,0.17 c-1.75,0.01-3.44-0.73-5.19-0.75c-2.28-0.03-4.48,1.16-6.76,0.96c-1.26-0.11-2.47-0.64-3.74-0.65c-1.24-0.01-2.44,0.48-3.69,0.55 c-2.09,0.12-4.15-0.98-6.22-0.7c-1.06,0.14-2.05,0.64-3.09,0.87c-1.87,0.41-4.27-0.64-4.27-2.8c0-1.5,1.22-2.72,2.72-2.72 c1.12,0,2.22,0.1,3.34,0c1.48-0.13,2.96-0.42,4.45-0.27c1.16,0.12,2.3,0.5,3.46,0.37c0.74-0.09,1.44-0.38,2.17-0.57 c1.14-0.31,2.36-0.35,3.52-0.14c1.07,0.2,2.1,0.62,3.18,0.66c1.46,0.06,2.88-0.57,4.34-0.56c1.19,0.01,2.34,0.45,3.53,0.5 c1.1,0.05,2.19-0.23,3.29-0.36c2.31-0.28,7.66-0.28,7.66,3.1C95.32,40.79,94.06,41.31,92.58,41.37z" fill="#777777"/>
    </g>
    <g opacity="0.55">
      <path d="M69.12,66.89c-1.13-0.01-2.4-0.36-3.5-0.21c-0.67,0.09-1.32,0.27-1.98,0.36 c-0.62,0.08-1.25,0.08-1.88,0.08c-2.36,0-7.93,0.89-7.93-2.89c0-1.1,0.72-2.21,1.79-2.56c1.22-0.4,3.09,0.27,4.36,0.45 c0.61,0.09,1.22,0.18,1.84,0.18c2.46,0.01,10.03-2.85,10.03,1.92c0,1.06-0.73,2.31-1.82,2.57C69.73,66.87,69.43,66.9,69.12,66.89 z" fill="#777777"/>
      <path d="M92.43,66.94c-0.86-0.01-1.68-0.37-2.57-0.39c-0.79-0.02-1.53,0.37-2.3,0.57 c-1.94,0.49-4-0.28-5.97,0.07c-1.29,0.23-1.92,0.35-2.93-0.47c-0.84-0.68-1.52-1.3-1.52-2.47c0-1.26,0.87-2.35,2.08-2.65 c1.6-0.41,2.33,0.38,3.82,0.7c0.83,0.18,1.67-0.17,2.49-0.38c1.1-0.28,2.26-0.32,3.38-0.11c0.37,0.07,0.74,0.17,1.12,0.2 c1.32,0.1,2.35-0.83,3.61-0.21c0.92,0.46,1.52,1.42,1.52,2.44c0,1.14-0.76,2.24-1.86,2.58C92.99,66.91,92.71,66.94,92.43,66.94z" fill="#777777"/>
    </g>
    <g opacity="0.55">
      <path d="M86.34,54.15c-1.62,0.08-3.59-0.44-4.76-0.49c-1.41-0.06-2.79,0.44-4.2,0.6 c-2.24,0.24-4.48-0.4-6.74-0.4C68,53.87,59.9,56.36,59.9,51.53c0-3.02,2.75-2.39,4.69-2.03c1.93,0.36,3.89-0.61,5.84-0.43 c1.05,0.1,2.04,0.52,3.09,0.63c1.92,0.19,3.8-0.7,5.72-0.66c0.6,0.01,1.19,0.12,1.79,0.16c0.95,0.07,1.9-0.02,2.83-0.18 c0.8-0.13,1.74-0.55,2.55-0.43c1.39,0.2,2.63,1.53,2.63,2.93C89.07,53.5,87.85,54.08,86.34,54.15z" fill="#777777"/>
    </g>
    <g>
      <path d="M93.63,61.79c-1.26-0.62-2.3,0.31-3.61,0.21c-0.38-0.03-0.75-0.13-1.12-0.2 c-1.12-0.21-2.28-0.17-3.38,0.11c-0.82,0.21-1.66,0.56-2.49,0.38c-1.49-0.32-2.22-1.11-3.82-0.7c-0.9,0.23-1.61,0.89-1.92,1.73 c0.28-0.2,0.59-0.36,0.93-0.44c1.6-0.41,2.33,0.38,3.82,0.7c0.83,0.18,1.67-0.17,2.49-0.38c1.1-0.28,2.26-0.32,3.38-0.11 c0.37,0.07,0.74,0.17,1.12,0.2c1.32,0.1,2.35-0.83,3.61-0.21c0.92,0.46,1.52,1.42,1.52,2.44c0,0.32-0.07,0.64-0.18,0.94 c0.71-0.5,1.17-1.35,1.17-2.23C95.15,63.2,94.55,62.24,93.63,61.79z" fill="#777777"/>
      <path d="M61.81,62.31c-0.62,0-1.23-0.09-1.84-0.18c-1.27-0.18-3.13-0.85-4.36-0.45 c-0.76,0.25-1.33,0.88-1.61,1.61c0.19-0.13,0.39-0.25,0.62-0.32c1.22-0.4,3.09,0.27,4.36,0.45c0.61,0.09,1.22,0.18,1.84,0.18 c2.46,0.01,10.03-2.85,10.03,1.92c0,0.32-0.07,0.66-0.2,0.99c0.73-0.5,1.19-1.44,1.19-2.28C71.84,59.46,64.27,62.32,61.81,62.31z" fill="#777777"/>
      <path d="M86.43,48.6c-0.81-0.12-1.76,0.3-2.55,0.43c-0.94,0.16-1.89,0.24-2.83,0.18 c-0.6-0.04-1.19-0.15-1.79-0.16c-1.93-0.04-3.81,0.85-5.72,0.66c-1.05-0.11-2.04-0.53-3.09-0.63c-1.95-0.18-3.92,0.79-5.84,0.43 c-1.74-0.33-4.13-0.86-4.6,1.21c0.98-0.45,2.44-0.14,3.61,0.08c1.93,0.36,3.89-0.61,5.84-0.43c1.05,0.1,2.04,0.52,3.09,0.63 c1.92,0.19,3.8-0.7,5.72-0.66c0.6,0.01,1.19,0.12,1.79,0.16c0.95,0.07,1.9-0.02,2.83-0.18c0.8-0.13,1.74-0.55,2.55-0.43 c1.39,0.2,2.63,1.53,2.63,2.93c0,0.36-0.05,0.67-0.13,0.94c0.68-0.37,1.12-1.05,1.12-2.23C89.07,50.13,87.82,48.8,86.43,48.6z" fill="#777777"/>
      <path d="M87.66,35.73c-1.1,0.13-2.19,0.41-3.29,0.36c-1.19-0.05-2.34-0.49-3.53-0.5 c-1.46-0.01-2.88,0.62-4.34,0.56c-1.08-0.04-2.12-0.46-3.18-0.66c-1.17-0.22-2.38-0.17-3.52,0.14c-0.72,0.19-1.42,0.49-2.17,0.57 c-1.16,0.13-2.3-0.25-3.46-0.37c-1.49-0.15-2.97,0.14-4.45,0.27c-1.12,0.1-2.22,0-3.34,0c-1.17,0-2.17,0.75-2.55,1.79 c0.44-0.31,0.98-0.5,1.56-0.5c1.12,0,2.22,0.1,3.34,0c1.48-0.13,2.96-0.42,4.45-0.27c1.16,0.12,2.3,0.5,3.46,0.37 c0.74-0.09,1.44-0.38,2.17-0.57c1.15-0.31,2.36-0.35,3.52-0.14c1.07,0.2,2.1,0.62,3.18,0.66c1.46,0.06,2.88-0.57,4.34-0.56 c1.19,0.01,2.34,0.45,3.53,0.5c1.1,0.05,2.19-0.23,3.29-0.36c2.31-0.28,7.66-0.28,7.66,3.1c0,0.34-0.05,0.61-0.12,0.87 c0.66-0.36,1.1-1,1.1-2.16C95.32,35.45,89.97,35.45,87.66,35.73z" fill="#777777"/>
    </g>
    <linearGradient id="SVGID_4_" gradientUnits="userSpaceOnUse" x1="55.9347" x2="55.9347" y1="99.8976" y2="136.13">
      <stop offset="0.1042" stop-color="#9E9E9E"/>
      <stop offset="0.4542" stop-color="#849298"/>
      <stop offset="0.6732" stop-color="#7A8D96"/>
      <stop offset="0.9483" stop-color="#505E64"/>
    </linearGradient>
    <path d="M93.27,124H18.6c-1.13,0-2.05-0.92-2.05-2.05v-13.23c0-1.13,0.92-2.05,2.05-2.05h74.67 c1.13,0,2.05,0.92,2.05,2.05v13.23C95.32,123.08,94.4,124,93.27,124z" fill="url(#SVGID_4_)"/>
    <linearGradient id="SVGID_5_" gradientUnits="userSpaceOnUse" x1="72.0653" x2="72.0653" y1="104.2402" y2="138.2678">
      <stop offset="0.1528" stop-color="#BDBDBD"/>
      <stop offset="1" stop-color="#6E818A"/>
    </linearGradient>
    <path d="M109.6,124H34.53c-1.02,0-1.85-0.83-1.85-1.85v-13.63c0-1.02,0.83-1.85,1.85-1.85h75.07 c1.02,0,1.85,0.83,1.85,1.85v13.63C111.45,123.17,110.62,124,109.6,124z" fill="url(#SVGID_5_)"/>
    <path d="M32.68,108.76c-0.07-0.85,0.45-1.75,1.3-2.11c0.42-0.2,0.91-0.19,1.31-0.21l1.27-0.07l5.07-0.24 c3.38-0.13,6.76-0.25,10.14-0.33c6.76-0.18,13.52-0.23,20.29-0.25c6.76,0.02,13.52,0.07,20.29,0.25c3.38,0.08,6.76,0.2,10.14,0.33 l5.07,0.24l1.27,0.07c0.4,0.03,0.89,0.01,1.31,0.21c0.85,0.37,1.37,1.26,1.3,2.11c-0.05-0.86-0.67-1.59-1.42-1.8 c-0.37-0.13-0.76-0.07-1.19-0.05l-1.27,0.07l-5.07,0.24c-3.38,0.13-6.76,0.25-10.14,0.33c-6.76,0.18-13.52,0.23-20.29,0.25 c-6.76-0.02-13.52-0.07-20.29-0.25c-3.38-0.08-6.76-0.2-10.14-0.33l-5.07-0.24l-1.27-0.07c-0.44-0.02-0.82-0.08-1.19,0.05 C33.35,107.17,32.73,107.9,32.68,108.76z" fill="#E0E0E0"/>
  </g>
</svg>

<svg viewBox="0 0 128 128" xmlns="http://www.w3.org/2000/svg">
  <defs>
    <linearGradient id="SVGID_4_" gradientUnits="userSpaceOnUse" x1="55.9347" x2="55.9347" y1="99.8976" y2="136.13">
      <stop offset="0.1042" stop-color="#9E9E9E"/>
      <stop offset="0.4542" stop-color="#849298"/>
      <stop offset="0.6732" stop-color="#7A8D96"/>
      <stop offset="0.9483" stop-color="#505E64"/>
    </linearGradient>
    <linearGradient id="SVGID_5_" gradientUnits="userSpaceOnUse" x1="72.0653" x2="72.0653" y1="104.2402" y2="138.2678">
      <stop offset="0.1528" stop-color="#BDBDBD"/>
      <stop offset="1" stop-color="#6E818A"/>
    </linearGradient>
    <linearGradient id="SVGID_1_" gradientUnits="userSpaceOnUse" x1="55.9347" x2="55.9347" y1="29.979" y2="127.5925">
      <stop offset="0.1042" stop-color="#9E9E9E"/>
      <stop offset="0.4542" stop-color="#849298"/>
      <stop offset="0.6732" stop-color="#7A8D96"/>
      <stop offset="0.9483" stop-color="#505E64"/>
    </linearGradient>
    <linearGradient id="SVGID_2_" gradientUnits="userSpaceOnUse" x1="42.0312" x2="42.0312" y1="8.839" y2="29.155">
      <stop offset="0" stop-color="#757575" stop-opacity="0"/>
      <stop offset="0.8282" stop-color="#757575"/>
      <stop offset="0.9543" stop-color="#757575" stop-opacity="0"/>
    </linearGradient>
    <linearGradient id="SVGID_3_" gradientUnits="userSpaceOnUse" x1="83.5678" x2="52.4534" y1="19.5368" y2="158.4737">
      <stop offset="0.1528" stop-color="#BDBDBD"/>
      <stop offset="1" stop-color="#6E818A"/>
    </linearGradient>
  </defs>
  <path d="M35.35,21.07 C38.38,13.49 43.9,7.68 50.61,5.24 C52.85,4.44 73.54,4 73.54,4 C73.54,4 75.94,10.96 79.98,21.07 C81.28,24.33 83.3,26.64 87.59,27.25 C89,27.45 90.07,28.71 90.07,30.26 L90.07,114.07 L21.8,114.07 L21.8,30.37 C21.8,28.75 22.97,27.44 24.45,27.35 C31.83,26.9 33.97,24.53 35.35,21.07 Z" fill="url(#SVGID_1_)"/>
  <path d="M44.56,8.59 C40.61,11.6 37.41,15.93 35.35,21.07 C33.97,24.53 31.83,26.9 24.44,27.34 C23.76,27.38 23.16,27.69 22.7,28.15 L61.37,28.15 L61.37,8.59 L44.56,8.59 Z" fill="url(#SVGID_2_)"/>
  <path d="M51.22,21.07 C55.26,10.96 63.74,4 73.54,4 C83.35,4 91.82,10.96 95.86,21.07 C97.16,24.33 99.18,26.64 103.47,27.25 C104.88,27.45 105.95,28.71 105.95,30.26 L105.95,114.07 L37.67,114.07 L37.67,30.37 C37.67,28.75 38.84,27.44 40.32,27.35 C47.7,26.9 49.84,24.53 51.22,21.07 Z" fill="url(#SVGID_3_)"/>
  <path d="M37.67,33.98 C38.14,40.35 38.39,46.72 38.55,53.09 C38.73,59.46 38.78,65.83 38.81,72.2 C38.79,78.57 38.75,84.94 38.57,91.31 C38.41,97.68 38.16,104.05 37.7,110.42 C37.23,104.05 36.98,97.68 36.81,91.31 C36.63,84.94 36.58,78.57 36.56,72.2 C36.58,65.83 36.63,59.46 36.8,53.09 C36.96,46.71 37.21,40.34 37.67,33.98 Z" fill="#BDBDBD"/>
  <path d="M73.54,4 C70.13,4.87 67.04,6.34 64.26,8.26 C61.48,10.16 58.97,12.48 56.86,15.06 C56.33,15.71 55.89,16.37 55.43,17.1 L54.05,19.29 C53.14,20.77 52.22,22.26 51.18,23.71 C50.9,24.08 50.68,24.42 50.33,24.81 C49.99,25.18 49.62,25.5 49.22,25.77 C48.43,26.32 47.58,26.71 46.7,26.97 C44.94,27.49 43.11,27.55 41.38,27.27 C43.13,27.1 44.83,26.73 46.33,26 C47.07,25.63 47.78,25.21 48.36,24.67 C48.96,24.14 49.33,23.55 49.78,22.79 C50.64,21.32 51.45,19.78 52.3,18.26 C53.15,16.74 53.98,15.17 55.12,13.7 C57.34,10.81 60.14,8.46 63.27,6.67 C66.42,4.92 70,3.82 73.54,4 Z" fill="#E0E0E0"/>
  <path d="M92.58,41.37 C91.48,41.42 90.25,41.21 89.34,41.17 C88.43,41.13 87.53,41.33 86.62,41.34 C84.87,41.35 83.18,40.61 81.43,40.59 C79.15,40.56 76.95,41.75 74.67,41.55 C73.41,41.44 72.2,40.91 70.93,40.9 C69.69,40.89 68.49,41.38 67.24,41.45 C65.15,41.57 63.09,40.47 61.02,40.75 C59.96,40.89 58.97,41.39 57.93,41.62 C56.06,42.03 53.66,40.98 53.66,38.82 C53.66,37.32 54.88,36.1 56.38,36.1 C57.5,36.1 58.6,36.2 59.72,36.1 C61.2,35.97 62.68,35.68 64.17,35.83 C65.33,35.95 66.47,36.33 67.63,36.2 C68.37,36.11 69.07,35.82 69.8,35.63 C70.94,35.32 72.16,35.28 73.32,35.49 C74.39,35.69 75.42,36.11 76.5,36.15 C77.96,36.21 79.38,35.58 80.84,35.59 C82.03,35.6 83.18,36.04 84.37,36.09 C85.47,36.14 86.56,35.86 87.66,35.73 C89.97,35.45 95.32,35.45 95.32,38.83 C95.32,40.79 94.06,41.31 92.58,41.37 Z" fill="#777777" opacity="0.55"/>
  <g opacity="0.55">
    <path d="M69.12,66.89 C67.99,66.88 66.72,66.53 65.62,66.68 C64.95,66.77 64.3,66.95 63.64,67.04 C63.02,67.12 62.39,67.12 61.76,67.12 C59.4,67.12 53.83,68.01 53.83,64.23 C53.83,63.13 54.55,62.02 55.62,61.67 C56.84,61.27 58.71,61.94 59.98,62.12 C60.59,62.21 61.2,62.3 61.82,62.3 C64.28,62.31 71.85,59.45 71.85,64.22 C71.85,65.28 71.12,66.53 70.03,66.79 C69.73,66.87 69.43,66.9 69.12,66.89 Z" fill="#777777"/>
    <path d="M92.43,66.94 C91.57,66.93 90.75,66.57 89.86,66.55 C89.07,66.53 88.33,66.92 87.56,67.12 C85.62,67.61 83.56,66.84 81.59,67.19 C80.3,67.42 79.67,67.54 78.66,66.72 C77.82,66.04 77.14,65.42 77.14,64.25 C77.14,62.99 78.01,61.9 79.22,61.6 C80.82,61.19 81.55,61.98 83.04,62.3 C83.87,62.48 84.71,62.13 85.53,61.92 C86.63,61.64 87.79,61.6 88.91,61.81 C89.28,61.88 89.65,61.98 90.03,62.01 C91.35,62.11 92.38,61.18 93.64,61.8 C94.56,62.26 95.16,63.22 95.16,64.24 C95.16,65.38 94.4,66.48 93.3,66.82 C92.99,66.91 92.71,66.94 92.43,66.94 Z" fill="#777777"/>
  </g>
  <path d="M86.34,54.15 C84.72,54.23 82.75,53.71 81.58,53.66 C80.17,53.6 78.79,54.1 77.38,54.26 C75.14,54.5 72.9,53.86 70.64,53.86 C68,53.87 59.9,56.36 59.9,51.53 C59.9,48.51 62.65,49.14 64.59,49.5 C66.52,49.86 68.48,48.89 70.43,49.07 C71.48,49.17 72.47,49.59 73.52,49.7 C75.44,49.89 77.32,49 79.24,49.04 C79.84,49.05 80.43,49.16 81.03,49.2 C81.98,49.27 82.93,49.18 83.86,49.02 C84.66,48.89 85.6,48.47 86.41,48.59 C87.8,48.79 89.04,50.12 89.04,51.52 C89.07,53.5 87.85,54.08 86.34,54.15 Z" fill="#777777" opacity="0.55"/>
  <path d="M93.63,61.79 C92.37,61.17 91.33,62.1 90.02,62 C89.64,61.97 89.27,61.87 88.9,61.8 C87.78,61.59 86.62,61.63 85.52,61.91 C84.7,62.12 83.86,62.47 83.03,62.29 C81.54,61.97 80.81,61.18 79.21,61.59 C78.31,61.82 77.6,62.48 77.29,63.32 C77.57,63.12 77.88,62.96 78.22,62.88 C79.82,62.47 80.55,63.26 82.04,63.58 C82.87,63.76 83.71,63.41 84.53,63.2 C85.63,62.92 86.79,62.88 87.91,63.09 C88.28,63.16 88.65,63.26 89.03,63.29 C90.35,63.39 91.38,62.46 92.64,63.08 C93.56,63.54 94.16,64.5 94.16,65.52 C94.16,65.84 94.09,66.16 93.98,66.46 C94.69,65.96 95.15,65.11 95.15,64.23 C95.15,63.2 94.55,62.24 93.63,61.79 Z" fill="#777777"/>
  <path d="M61.81,62.31 C61.19,62.31 60.58,62.22 59.97,62.13 C58.7,61.95 56.84,61.28 55.61,61.68 C54.85,61.93 54.28,62.56 54,63.29 C54.19,63.16 54.39,63.04 54.62,62.97 C55.84,62.57 57.71,63.24 58.98,63.42 C59.59,63.51 60.2,63.6 60.82,63.6 C63.28,63.61 70.85,60.75 70.85,65.52 C70.85,65.84 70.78,66.18 70.65,66.51 C71.38,66.01 71.84,65.07 71.84,64.23 C71.84,59.46 64.27,62.32 61.81,62.31 Z" fill="#777777"/>
  <path d="M86.43,48.6 C85.62,48.48 84.67,48.9 83.88,49.03 C82.94,49.19 81.99,49.27 81.05,49.21 C80.45,49.17 79.86,49.06 79.26,49.05 C77.33,49.01 75.45,49.9 73.54,49.71 C72.49,49.6 71.5,49.18 70.45,49.08 C68.5,48.9 66.53,49.87 64.61,49.51 C62.87,49.18 60.48,48.65 60.01,50.72 C60.99,50.27 62.45,50.58 63.62,50.8 C65.55,51.16 67.51,50.19 69.46,50.37 C70.51,50.47 71.5,50.89 72.55,51 C74.47,51.19 76.35,50.3 78.27,50.34 C78.87,50.35 79.46,50.46 80.06,50.5 C81.01,50.57 81.96,50.48 82.89,50.32 C83.69,50.19 84.63,49.77 85.44,49.89 C86.83,50.09 88.07,51.42 88.07,52.82 C88.07,53.18 88.02,53.49 87.94,53.76 C88.62,53.39 89.06,52.71 89.06,51.53 C89.07,50.13 87.82,48.8 86.43,48.6 Z" fill="#777777"/>
  <path d="M87.66,35.73 C86.56,35.86 85.47,36.14 84.37,36.09 C83.18,36.04 82.03,35.6 80.84,35.59 C79.38,35.58 77.96,36.21 76.5,36.15 C75.42,36.11 74.38,35.69 73.32,35.49 C72.15,35.27 70.94,35.32 69.8,35.63 C69.08,35.82 68.38,36.12 67.63,36.2 C66.47,36.33 65.33,35.95 64.17,35.83 C62.68,35.68 61.2,35.97 59.72,36.1 C58.6,36.2 57.5,36.1 56.38,36.1 C55.21,36.1 54.21,36.85 53.83,37.89 C54.27,37.58 54.81,37.39 55.39,37.39 C56.51,37.39 57.61,37.49 58.73,37.39 C60.21,37.26 61.69,36.97 63.18,37.12 C64.34,37.24 65.48,37.62 66.64,37.49 C67.38,37.4 68.08,37.11 68.81,36.92 C69.96,36.61 71.17,36.57 72.33,36.78 C73.4,36.98 74.43,37.4 75.51,37.44 C76.97,37.5 78.39,36.87 79.85,36.88 C81.04,36.89 82.19,37.33 83.38,37.38 C84.48,37.43 85.57,37.15 86.67,37.02 C88.98,36.74 94.33,36.74 94.33,40.12 C94.33,40.46 94.28,40.73 94.21,40.99 C94.87,40.63 95.31,39.99 95.31,38.83 C95.32,35.45 89.97,35.45 87.66,35.73 Z" fill="#777777"/>
  <path d="M93.27,124 L18.6,124 C17.47,124 16.55,123.08 16.55,121.95 L16.55,108.72 C16.55,107.59 17.47,106.67 18.6,106.67 L93.27,106.67 C94.4,106.67 95.32,107.59 95.32,108.72 L95.32,121.95 C95.32,123.08 94.4,124 93.27,124 Z" fill="url(#SVGID_4_)"/>
  <path d="M109.6,124 L34.53,124 C33.51,124 32.68,123.17 32.68,122.15 L32.68,108.52 C32.68,107.5 33.51,106.67 34.53,106.67 L109.6,106.67 C110.62,106.67 111.45,107.5 111.45,108.52 L111.45,122.15 C111.45,123.17 110.62,124 109.6,124 Z" fill="url(#SVGID_5_)"/>
  <path d="M32.68,108.76 C32.61,107.91 33.13,107.01 33.98,106.65 C34.4,106.45 34.89,106.46 35.29,106.44 L36.56,106.37 L41.63,106.13 C45.01,106 48.39,105.88 51.77,105.8 C58.53,105.62 65.29,105.57 72.06,105.55 C78.82,105.57 85.58,105.62 92.35,105.8 C95.73,105.88 99.11,106 102.49,106.13 L107.56,106.37 L108.83,106.44 C109.23,106.47 109.72,106.45 110.14,106.65 C110.99,107.02 111.51,107.91 111.44,108.76 C111.39,107.9 110.77,107.17 110.02,106.96 C109.65,106.83 109.26,106.89 108.83,106.91 L107.56,106.98 L102.49,107.22 C99.11,107.35 95.73,107.47 92.35,107.55 C85.59,107.73 78.83,107.78 72.06,107.8 C65.3,107.78 58.54,107.73 51.77,107.55 C48.39,107.47 45.01,107.35 41.63,107.22 L36.56,106.98 L35.29,106.91 C34.85,106.89 34.47,106.83 34.1,106.96 C33.35,107.17 32.73,107.9 32.68,108.76 Z" fill="#E0E0E0"/>
</svg>
